X:1
T:Title
%%score 1 { 2 | 3 }
L:1/8
Q:1/4=100
M:9/8
K:C
V:1 treble nm="Grand Piano, Soprano"
V:2 treble nm="Choir Pad, Aarhus, 10.10.10 D"
V:3 bass 
V:1
 [EG][EG][FA] [EG] [EG]2- [EG] [CE]2 | [EG][FA][Ac] [FA] [EG]2- [EG]2- [EG]/ z/ | %2
w: By~Robert~Lowry,~1871 * * * * * *||
 [EG][EG][DF] [CE] [DF]2- [DF] [B,D]2 | [CE][DF][FA] [EG] [CE]2- [CE]2- [CE]/ z/ | %4
w: ||
 [EG][EG][FA] [EG] [EG]2- [EG] [CE]2 | [EG][Gc][GB] [Gc] [FA]2- [FA]2- [FA]/ z/ | %6
w: ||
 [FA][Fd][Ac] [FA] [EG]2- [EG] [D^F]2 | [DG][DB][DB] [CA] [B,G]2- [B,G]2- [B,G]/ z/ | %8
w: ||
 G[Gd][Gc] [Gd] [Ge]2- [Ge] [Ec]2 | [Gc][Ac][GB] [FA] [EG]2- [EG]2- [EG]/ z/ | %10
w: ||
 [EG][FA][GB] [Ac] [Fd]2- [Fd] [FA]2 | [Fc][FB][FA] [FB] [Ec]2- [Ec]3- | [Ec]3 z3 z3 |] %13
w: |||
V:2
 CCC C C2- C G,2 | CCC C C2- C2- C/ z/ | CC[K:bass]G, G, G,2- G,/ z/ G,2 | %3
 G,G,G, G, G,2- G,2- G,/ z/ | CCC C C2- C G,2 | CED C C2- C2- C/ z/ | CA,C C C2- C[K:bass] A,2 | %7
 G,G,G, ^F, G,2- G,2- G,/ z/ | G,B,A, B,[K:treble] C2- C/ z/ G,2 | CCC C C2- C2- C/ z/ | %10
 CCC C[K:bass] A,2- A, C2 | A,G,G, G, G,2- G,3- | G,3 z3 z3 |] %13
V:3
 C,C,C, C, C,2- C, C,2 | C,F,F, F, C,2- C,2- C,/ z/ | C, .G,2 z3 z3 | %3
 z G,,G,, G,, C,2- C,2- C,/ z/ | C,C,C, C, C,2- C, C,2 | C,C,D, E, F,2- F,2- F,/ z/ | %6
 F,F,F, F, C,2- C, C,2 | B,,D,D, D, G,,2- G,,2- G,,/ z/ | z G,G, .G,3 z C,2 | %9
 E,F,F, F, C,2- C,2- C,/ z/ | C,F,F, F, F,2- F, F,2 | .F,3 z C,2- C,3- | C,3 z3 z3 |] %13

